X: 19565
T: James Kelly's
R: slip jig
M: 9/8
K: Dmajor
FAA BA2|FAA AB/c/d|FAA BA2|efe dc/B/A:|
faa fd2|efe dc/B/A|fde cd2|B=cB AF/E/D:|

